icons/blur-off-line.svg

<svg xmlns="http://www.w3.org/2000/svg" width="24" height="24" fill="none"><g clip-path="url(#a)"><g><path fill="#121212" d="M18.154 19.568C16.4501 21.171 14.189 22.0475 11.8498 22.0118C9.5107 21.9761 7.27737 21.031 5.62316 19.3768C3.96894 17.7226 3.02385 15.4893 2.98816 13.1501C2.95248 10.811 3.82902 8.54988 5.43201 6.84597L1.39301 2.80797L2.80801 1.39297L22.607 21.193L21.192 22.607L18.154 19.567V19.568ZM6.84701 8.26197C5.62639 9.5915 4.96649 11.3411 5.00505 13.1456C5.04361 14.95 5.77766 16.6698 7.05395 17.946C8.33025 19.2222 10.0501 19.956 11.8546 19.9944C13.6591 20.0328 15.4086 19.3727 16.738 18.152L6.84801 8.26197H6.84701ZM20.414 16.2L18.815 14.601C19.0879 13.4407 19.0599 12.23 18.7335 11.0837C18.4071 9.93734 17.7932 8.89342 16.95 8.05097L12 3.09997L9.65701 5.44297L8.24301 4.02997L12 0.271973L18.364 6.63597C19.5912 7.86293 20.4376 9.41845 20.8013 11.1153C21.165 12.8121 21.0305 14.5778 20.414 16.2Z"/></g></g><defs><clipPath id="a"><rect width="24" height="24" fill="white"/></clipPath></defs></svg>

<svg width="24" height="24" fill="none" xmlns="http://www.w3.org/2000/svg"><g clip-path="url(#a)"><path d="M18.154 19.568A9 9 0 0 1 5.432 6.846L1.393 2.808l1.415-1.415 19.799 19.8-1.415 1.414-3.038-3.04v.001ZM6.847 8.262a7 7 0 0 0 9.891 9.89l-9.89-9.89h-.001ZM20.414 16.2l-1.599-1.599a6.995 6.995 0 0 0-1.865-6.55L12 3.1 9.657 5.443 8.243 4.03 12 .272l6.364 6.364a9.002 9.002 0 0 1 2.05 9.564Z" /></g><defs><clipPath id="a"><path fill="#fff" d="M0 0h24v24H0z"/></clipPath></defs></svg>
